packages/katcn/src/icons/svg/video.svg

<svg width="24" height="25" viewBox="0 0 24 25" fill="none" xmlns="http://www.w3.org/2000/svg">
<path fill-rule="evenodd" clip-rule="evenodd" d="M3 7.90801C3 6.94584 3.74844 6.20801 4.65909 6.20801H12.3409C13.2516 6.20801 14 6.94584 14 7.90801V8.71046C13.9997 8.72512 13.9997 8.73981 14 8.75452V15.508C14 16.3944 13.228 17.208 12.3409 17.208H4.65909C3.77197 17.208 3 16.3944 3 15.508V7.90801ZM16 9.37491V15.508C16 17.4217 14.4083 19.208 12.3409 19.208H4.65909C2.59167 19.208 1 17.4217 1 15.508V7.90801C1 5.87017 2.61519 4.20801 4.65909 4.20801H12.3409C14.1443 4.20801 15.614 5.50207 15.9349 7.20645L19.938 5.38079C19.9678 5.36719 19.9983 5.35506 20.0293 5.34446C20.6973 5.11598 21.4089 5.17815 21.9805 5.50404C22.5619 5.83549 23 6.45151 23 7.22958V16.1495C23 16.9545 22.5099 17.5788 21.9508 17.9051C21.3917 18.2315 20.6253 18.345 19.9178 17.9891L18.0851 17.1533C17.5826 16.9241 17.361 16.331 17.5902 15.8285C17.8193 15.326 18.4124 15.1044 18.9149 15.3336L20.7679 16.1786C20.7838 16.1859 20.7996 16.1936 20.8151 16.2017C20.8224 16.2055 20.8322 16.209 20.852 16.2078C20.8754 16.2063 20.9085 16.1978 20.9425 16.1779C20.9731 16.1601 20.9914 16.1408 21 16.1292V7.24775C20.9973 7.24588 20.994 7.2438 20.99 7.24155C20.9477 7.21739 20.8492 7.18855 20.7123 7.22585L16 9.37491Z" fill="black"/>
</svg>

<svg xmlns="http://www.w3.org/2000/svg" fill="none" viewBox="0 0 24 25"><path fill="#000" fill-rule="evenodd" d="M3 7.908c0-.962.748-1.7 1.66-1.7h7.68c.912 0 1.66.738 1.66 1.7v7.6c0 .886-.772 1.7-1.66 1.7H4.66c-.888 0-1.66-.814-1.66-1.7zm13 1.467v6.133c0 1.914-1.592 3.7-3.66 3.7H4.66c-2.068 0-3.66-1.786-3.66-3.7v-7.6c0-2.038 1.615-3.7 3.66-3.7h7.68c1.804 0 3.274 1.294 3.595 2.998l4.003-1.825a2.38 2.38 0 0 1 2.043.123C22.56 5.835 23 6.452 23 7.23v8.92c0 .805-.49 1.429-1.05 1.755-.558.326-1.325.44-2.032.084l-1.833-.836a1 1 0 0 1 .83-1.82l1.853.846.047.023a.1.1 0 0 0 .037.006.2.2 0 0 0 .09-.03.2.2 0 0 0 .058-.049V7.248l-.01-.006a.38.38 0 0 0-.278-.016z" clip-rule="evenodd"/></svg>
